T: Wee Highland Laddie
M: 4/4
L: 1/8
K: Amix
B2 Bc f2 ec|B2 A3/2B/2 cB Bc|e3/2f/2 ec e2 cB|A2 cB BA AG|
A2 AA a2 a3/2g/2|f3/2e/2 fa fe ce|f3/2g/2 ag f2 ec|B2 f3/2e/2 cB Bf||
a3/2g/2 fa f2 ef|a3/2g/2 fa fe cf|e3/2f/2 ec e2 cB|A2 cB BA AG|
A2 AA a2 a3/2g/2|f3/2e/2 fa fe ce|f3/2g/2 ag f2 ec|B2 f3/2e/2 cB Bf||
